Obsidian-SemiLight/actions/16s/view-time-schedule-insert.svg

<svg viewBox="0 0 16 16" xmlns="http://www.w3.org/2000/svg"><path d="m2 2v12h6v-1h-5v-8h10v3h1v-6h-2v2h-2v-2h-4v2h-2v-2zm2 4v3h1v-1h4v1h1v-3h-1v1h-4v-1zm7 3v2h-2v1h2v2h1v-2h2v-1h-2v-2z" fill="#4d4d4d"/></svg>

<svg xmlns="http://www.w3.org/2000/svg" viewBox="0 0 16 16">
  <defs id="defs3051">
    <style type="text/css" id="current-color-scheme">
      .ColorScheme-Text {
        color:#4d4d4d;
      }
      </style>
  </defs>
    <path
       style="fill:currentColor;fill-opacity:1;stroke:none" 
       d="M 2 2 L 2 14 L 8 14 L 8 13 L 3 13 L 3 5 L 13 5 L 13 8 L 14 8 L 14 2 L 12 2 L 12 4 L 10 4 L 10 2 L 6 2 L 6 4 L 4 4 L 4 2 L 2 2 z M 4 6 L 4 9 L 5 9 L 5 8 L 9 8 L 9 9 L 10 9 L 10 6 L 9 6 L 9 7 L 5 7 L 5 6 L 4 6 z M 11 9 L 11 11 L 9 11 L 9 12 L 11 12 L 11 14 L 12 14 L 12 12 L 14 12 L 14 11 L 12 11 L 12 9 L 11 9 z "
       id="rect4449" 
     class="ColorScheme-Text"/>
</svg>
